src/assets/safe.svg

<svg fill="none" height="120" viewBox="0 0 118 120" width="118" xmlns="http://www.w3.org/2000/svg" xmlns:xlink="http://www.w3.org/1999/xlink"><mask id="a" height="109" maskUnits="userSpaceOnUse" width="62" x="6" y="6"><path d="m67.725 6h-60.782v108.737h60.78v-108.737z" fill="#fff"/></mask><path clip-rule="evenodd" d="m42.13 61.203-15.759-15.667c-1.4765 1.9716-2.2759 4.3678-2.279 6.831 0 6.184 5.034 11.207 11.204 11.207 2.563 0 4.939-.858 6.834-2.371z" fill="#28b2fa" fill-rule="evenodd"/><g mask="url(#a)"><path clip-rule="evenodd" d="m23.226 25.551c9.542-9.37 22.044-14.46 35.452-14.46h.084c.148 0 .296.008.442.011v50.9l-35.978-36.45zm35.355-19.55201c-15.561 0-30.043 6.37001-40.66 17.72501l-1.714 1.828 42.998 43.64v7.825l-.17.171-11.062-11.271c-2.5978 1.753-5.5708 2.8716-8.6798 3.2659s-6.2671.0531-9.2202-.9959c-10.44-3.82-15.842-15.366-12.059-25.82.537-1.635 1.346-3.093 2.244-4.453l-4.766-4.821-.9 1.546c-4.99662 8.2559-7.64095 17.7208-7.647 27.371-.087 29.007 23.299 52.725 51.996 52.725l8.784.002v-108.73001l-9.144-.007z" fill="#28b2fa" fill-rule="evenodd"/></g><g clip-rule="evenodd" fill="#28b2fa" fill-rule="evenodd"><path d="m111.8 61.572c0-24.307-19.778-44.082-44.092-44.095v5.276c21.404.011 38.816 17.419 38.816 38.818 0 21.394-17.412 38.804-38.816 38.815v5.276c24.314-.013 44.093-19.788 44.093-44.09"/><path d="m77.688 60.677-2.103 12.918h10.297l-2.1-12.918c2.342-1.123 3.968-3.482 3.968-6.223 0-3.816-3.14-6.914-7.014-6.914-3.873 0-7.015 3.098-7.015 6.914-.004 2.744 1.62 5.1 3.967 6.223zm-2.461-29.245c2.58.657 3.574-3.195.995-3.858-2.578-.66-3.572 3.194-.995 3.857zm11.256 5.59c2.014 1.688 4.548-1.328 2.534-3.015-2.014-1.686-4.546 1.33-2.534 3.015zm7.51 11.39c1.16 2.378 4.709.63 3.548-1.748-1.157-2.37-4.708-.626-3.548 1.748zm-18.766 43.297c2.58-.661 3.574 3.195.995 3.856-2.578.661-3.572-3.193-.995-3.856zm11.256-7.597c2.014-1.687 4.548 1.33 2.534 3.015-2.014 1.688-4.546-1.329-2.534-3.014zm7.51-9.386c1.16-2.376 4.709-.629 3.548 1.75-1.157 2.37-4.708.625-3.548-1.75zm3.778-13.157c0 2.673 4.009 2.673 4.009 0 0-2.671-4.009-2.671-4.009 0z"/></g></svg>

<svg width="118" height="120" viewBox="0 0 118 120" fill="none" xmlns="http://www.w3.org/2000/svg">
<path fill-rule="evenodd" clip-rule="evenodd" d="M42.13 61.203L26.371 45.536C24.8945 47.5076 24.0951 49.9038 24.092 52.367C24.092 58.551 29.126 63.574 35.296 63.574C37.859 63.574 40.235 62.716 42.13 61.203Z" fill="#28B2FA"/>
<mask id="mask0" mask-type="alpha" maskUnits="userSpaceOnUse" x="6" y="6" width="62" height="109">
<path d="M67.725 6H6.943V114.737H67.723V6H67.725Z" fill="white"/>
</mask>
<g mask="url(#mask0)">
<path fill-rule="evenodd" clip-rule="evenodd" d="M23.226 25.551C32.768 16.181 45.27 11.091 58.678 11.091H58.762C58.91 11.091 59.058 11.099 59.204 11.102V62.002L23.226 25.552V25.551ZM58.581 5.99899C43.02 5.99899 28.538 12.369 17.921 23.724L16.207 25.552L59.205 69.192V77.017L59.035 77.188L47.973 65.917C45.3752 67.67 42.4022 68.7886 39.2932 69.1829C36.1842 69.5772 33.0261 69.236 30.073 68.187C19.633 64.367 14.231 52.821 18.014 42.367C18.551 40.732 19.36 39.274 20.258 37.914L15.492 33.093L14.592 34.639C9.59538 42.8949 6.95105 52.3598 6.945 62.01C6.858 91.017 30.244 114.735 58.941 114.735L67.725 114.737V6.00699L58.581 5.99999V5.99899Z" fill="#28B2FA"/>
</g>
<path fill-rule="evenodd" clip-rule="evenodd" d="M111.8 61.572C111.8 37.265 92.022 17.49 67.708 17.477V22.753C89.112 22.764 106.524 40.172 106.524 61.571C106.524 82.965 89.112 100.375 67.708 100.386V105.662C92.022 105.649 111.801 85.874 111.801 61.572" fill="#28B2FA"/>
<path fill-rule="evenodd" clip-rule="evenodd" d="M77.688 60.677L75.585 73.595H85.882L83.782 60.677C86.124 59.554 87.75 57.195 87.75 54.454C87.75 50.638 84.61 47.54 80.736 47.54C76.863 47.54 73.721 50.638 73.721 54.454C73.717 57.198 75.341 59.554 77.688 60.677V60.677ZM75.227 31.432C77.807 32.089 78.801 28.237 76.222 27.574C73.644 26.914 72.65 30.768 75.227 31.431V31.432ZM86.483 37.022C88.497 38.71 91.031 35.694 89.017 34.007C87.003 32.321 84.471 35.337 86.483 37.022ZM93.993 48.412C95.153 50.79 98.702 49.042 97.541 46.664C96.384 44.294 92.833 46.038 93.993 48.412ZM75.227 91.709C77.807 91.048 78.801 94.904 76.222 95.565C73.644 96.226 72.65 92.372 75.227 91.709ZM86.483 84.112C88.497 82.425 91.031 85.442 89.017 87.127C87.003 88.815 84.471 85.798 86.483 84.113V84.112ZM93.993 74.726C95.153 72.35 98.702 74.097 97.541 76.476C96.384 78.846 92.833 77.101 93.993 74.726ZM97.771 61.569C97.771 64.242 101.78 64.242 101.78 61.569C101.78 58.898 97.771 58.898 97.771 61.569Z" fill="#28B2FA"/>
</svg>
